src/svg/product-hunt.svg

<svg height="1000" width="1000.0" xmlns="http://www.w3.org/2000/svg">
    <path d="m637.3 427.3c0 40.1-32.6 72.7-72.7 72.7h-137.3v-145.3h137.3c40.1 0 72.7 32.6 72.7 72.6z m347.1 72.7c0 267.6-216.8 484.4-484.4 484.4s-484.4-216.8-484.4-484.4 216.8-484.4 484.4-484.4 484.4 216.8 484.4 484.4z m-250.2-72.7c0-93.5-76-169.5-169.6-169.5h-234.1v484.4h96.8v-145.3h137.3c93.6 0 169.6-76 169.6-169.6z" />
  </svg>

<svg height="1000" width="1000" xmlns="http://www.w3.org/2000/svg"><path d="M637.3 427.3c0 40.1 -32.6 72.7 -72.7 72.7H427.3V354.7h137.3c40.1 0 72.7 32.6 72.7 72.6zM984.4 500c0 267.6 -216.8 484.4 -484.4 484.4S15.6 767.6 15.6 500 232.4 15.6 500 15.6 984.4 232.4 984.4 500zM734.2 427.3c0 -93.5 -76 -169.5 -169.6 -169.5H330.5v484.4h96.8V596.9h137.3c93.6 0 169.6 -76 169.6 -169.6z"/></svg>
